X: 6841
T: Charlie Lennon's
R: reel
M: 4/4
K: Dmajor
UF2AF dFAF|DFAF GBAG|F2AF dFAF|(3GAG FG EFGE|F2AF dFAF|
DFAF GBAG|1 FAdf ecAB|(3cBA eA cAGA:|2 FAdf e^def|(3gag ec ABcA||
|:Udefd Adfd|eA{d}BA ge{a}fe|d2fd adfd|(3Bcd ef gece|
d2fd Adfd|(3BdB GB g2fg|(3agf ge {a}fded|1 cded cAce:|2 cded cAGE|D8||

